X:357
T: "Juerg Drachentoedter"
N: Z1037
O: Europa, Mitteleuropa, Deutschland, Rhein
R: Romanze, Ballade
M: 6/4
L: 1/8
K: F
AG | F2F2G2A2A2B2 | c3dcBA4
AG | F2F2G2A2A2B2 | c3dcBA4z2 | d4d2B4z2 |
c4cBA4c2 | c3BBAG4
G2 | A2A2B2c2G2B2 | A3BG2F4

@@@ Tune index: 10115
